symbols/web/whatshot/materialsymbolsrounded/whatshot_wght600fill1_48px.svg

<svg xmlns="http://www.w3.org/2000/svg" height="48" width="48"><path d="M24 44.7q-5.3 0-9.7-2.35-4.4-2.35-7.45-6.7l8.3-8.25 4.95 4.35q.6.5 1.375.45.775-.05 1.325-.55l9.65-9.7v4.7q0 .75.475 1.2.475.45 1.225.45.7 0 1.175-.45.475-.45.475-1.2V18.5q0-.85-.575-1.425-.575-.575-1.425-.575h-8.15q-.75 0-1.225.45-.475.45-.475 1.2t.475 1.2q.475.45 1.225.45h4.7l-8.95 8.95-5-4.35q-.6-.5-1.375-.45-.775.05-1.325.6l-8.35 8.4q-1.3-2.45-1.775-5.3Q3.1 24.8 3.4 22q.7-7.85 6.6-13.3 5.9-5.45 14-5.45 4.3 0 8.05 1.65 3.75 1.65 6.575 4.475Q41.45 12.2 43.1 15.95q1.65 3.75 1.65 8.05 0 4.25-1.65 8.025-1.65 3.775-4.475 6.6-2.825 2.825-6.575 4.45T24 44.7Z"/></svg>

<svg xmlns="http://www.w3.org/2000/svg" height="48" width="48"><path d="M24 44.7Q18.7 44.7 14.3 42.35Q9.9 40 6.85 35.65L15.15 27.4L20.1 31.75Q20.7 32.25 21.475 32.2Q22.25 32.15 22.8 31.65L32.45 21.95V26.65Q32.45 27.4 32.925 27.85Q33.4 28.3 34.15 28.3Q34.85 28.3 35.325 27.85Q35.8 27.4 35.8 26.65V18.5Q35.8 17.65 35.225 17.075Q34.65 16.5 33.8 16.5H25.65Q24.9 16.5 24.425 16.95Q23.95 17.4 23.95 18.15Q23.95 18.9 24.425 19.35Q24.9 19.8 25.65 19.8H30.35L21.4 28.75L16.4 24.4Q15.8 23.9 15.025 23.95Q14.25 24 13.7 24.55L5.35 32.95Q4.05 30.5 3.575 27.65Q3.1 24.8 3.4 22Q4.1 14.15 10 8.7Q15.9 3.25 24 3.25Q28.3 3.25 32.05 4.9Q35.8 6.55 38.625 9.375Q41.45 12.2 43.1 15.95Q44.75 19.7 44.75 24Q44.75 28.25 43.1 32.025Q41.45 35.8 38.625 38.625Q35.8 41.45 32.05 43.075Q28.3 44.7 24 44.7Z"/></svg>
